static/assets/images/networks/movement.svg

<svg width="256" height="256" viewBox="0 0 256 256" fill="none" xmlns="http://www.w3.org/2000/svg">
<path d="M128 256C198.692 256 256 198.692 256 128C256 57.3075 198.692 0 128 0C57.3075 0 0 57.3075 0 128C0 198.692 57.3075 256 128 256Z" fill="#FFCA0B"/>
<path fill-rule="evenodd" clip-rule="evenodd" d="M37.1177 78.7409C37.1177 91.0479 37.2189 92.1844 38.6099 95.5056C41.459 102.309 47.6242 106.085 56.8636 106.686C78.8985 108.121 78.882 136.727 56.8453 138.14C43.4961 138.997 35.8689 147.324 37.1367 159.658C38.178 169.788 44.3837 175.217 56.6136 176.697C69.8884 178.303 72.6103 182.995 72.6103 204.275V212.497H111.352V201.139C111.352 181.925 106.728 174.345 92.0995 173.569C68.6336 172.324 69.241 141.122 92.7311 141.122C102.742 141.122 107.929 146.176 108.354 156.345C109.466 182.987 146.117 182.635 147.333 155.971C148.274 135.322 179.635 135.961 180.527 156.647C180.957 166.608 174.328 171.398 163.61 173.569C148.844 176.56 144.345 182.674 144.345 201.139V212.5L182.962 212.372L183.114 202.265C183.409 182.516 186.046 178.262 198.959 176.694C226.192 173.389 225.434 138.193 198.129 138.123C191.411 138.105 185.522 133.867 183.238 127.406C179.703 117.405 187.49 106.716 198.334 106.685C208.294 106.657 215.266 101.731 217.816 92.9192L218.58 90.2795V67.5H179.917L179.758 79.0424C179.545 94.5366 179.153 95.9651 173.897 100.343C171.381 102.44 171.197 102.491 167.69 102.056C152.361 100.158 142.592 108.819 142.904 124.031L142.971 127.28L142.037 129.175C136.562 140.282 119.044 140.338 113.582 129.266L112.727 127.533L112.671 123.284C112.476 108.341 102.925 100.117 87.9821 102.025C84.2206 102.505 83.7042 102.308 80.5964 99.2062C76.2313 94.8493 76.1096 94.308 76.1096 79.256V67.5H37.1177V78.7409Z" fill="black"/>
</svg>

<svg xmlns="http://www.w3.org/2000/svg" fill="none" viewBox="0 0 256 256"><path fill="#FFCA0B" d="M128 256c70.692 0 128-57.308 128-128S198.692 0 128 0 0 57.308 0 128s57.308 128 128 128"/><path fill="#000" fill-rule="evenodd" d="M37.118 78.74c0 12.308.1 13.444 1.492 16.766 2.849 6.803 9.014 10.579 18.254 11.18 22.035 1.435 22.018 30.041-.019 31.454-13.349.857-20.976 9.184-19.708 21.518 1.041 10.13 7.247 15.559 19.477 17.039 13.274 1.606 15.996 6.298 15.996 27.578v8.222h38.742v-11.358c0-19.214-4.624-26.794-19.252-27.57-23.466-1.245-22.859-32.447.631-32.447 10.011 0 15.198 5.054 15.623 15.223 1.112 26.642 37.763 26.29 38.979-.374.941-20.649 32.302-20.01 33.194.676.43 9.961-6.199 14.751-16.917 16.922-14.766 2.991-19.265 9.105-19.265 27.57V212.5l38.617-.128.152-10.107c.295-19.749 2.932-24.003 15.845-25.571 27.233-3.305 26.475-38.501-.83-38.571-6.718-.018-12.607-4.256-14.891-10.717-3.535-10.001 4.252-20.69 15.096-20.721 9.96-.028 16.932-4.954 19.482-13.766l.764-2.64V67.5h-38.663l-.159 11.542c-.213 15.495-.605 16.923-5.861 21.301-2.516 2.097-2.7 2.148-6.207 1.713-15.329-1.898-25.098 6.763-24.786 21.975l.067 3.249-.934 1.895c-5.475 11.107-22.993 11.163-28.455.091l-.855-1.733-.056-4.249c-.195-14.943-9.746-23.167-24.689-21.259-3.761.48-4.278.283-7.386-2.819-4.365-4.357-4.486-4.898-4.486-19.95V67.5H37.118z" clip-rule="evenodd"/></svg>
